svgs/sharp-light/building-flag.svg

<svg xmlns="http://www.w3.org/2000/svg" viewBox="0 0 640 512"><!--! Font Awesome Pro 6.6.0 by @fontawesome - https://fontawesome.com License - https://fontawesome.com/license (Commercial License) Copyright 2024 Fonticons, Inc. --><path d="M32 32l0 448 96 0 0-80 0-32 32 0 64 0 32 0 0 32 0 80 96 0 0-448L32 32zM160 480l64 0 0-80-64 0 0 80zm-32 32l-96 0L0 512l0-32L0 32 0 0 32 0 352 0l32 0 0 32 0 448 0 32-32 0-96 0-32 0-64 0-32 0zM64 96l16 0 64 0 16 0 0 16 0 64 0 16-16 0-64 0-16 0 0-16 0-64 0-16zm32 32l0 32 32 0 0-32-32 0zM240 96l64 0 16 0 0 16 0 64 0 16-16 0-64 0-16 0 0-16 0-64 0-16 16 0zm16 64l32 0 0-32-32 0 0 32zM64 224l16 0 64 0 16 0 0 16 0 64 0 16-16 0-64 0-16 0 0-16 0-64 0-16zm32 32l0 32 32 0 0-32-32 0zm144-32l64 0 16 0 0 16 0 64 0 16-16 0-64 0-16 0 0-16 0-64 0-16 16 0zm16 64l32 0 0-32-32 0 0 32zM448 0l0 16 0 16 160 0 32 0 0 32 0 128 0 32-32 0-160 0 0 272 0 16-32 0 0-16 0-272 0-32 0-128 0-32 0-16 0-16 32 0zm0 192l160 0 0-128L448 64l0 128z"/></svg>

<svg xmlns="http://www.w3.org/2000/svg" viewBox="0 0 640 512"><!--! Font Awesome Pro 6.4.2 by @fontawesome - https://fontawesome.com License - https://fontawesome.com/license (Commercial License) Copyright 2023 Fonticons, Inc. --><path d="M32 32V480h96V400 368h32 64 32v32 80h96V32H32zM160 480h64V400H160v80zm-32 32H32 0V480 32 0H32 352h32V32 480v32H352 256 224 160 128zM64 96H80h64 16v16 64 16H144 80 64V176 112 96zm32 32v32h32V128H96zM240 96h64 16v16 64 16H304 240 224V176 112 96h16zm16 64h32V128H256v32zM64 224H80h64 16v16 64 16H144 80 64V304 240 224zm32 32v32h32V256H96zm144-32h64 16v16 64 16H304 240 224V304 240 224h16zm16 64h32V256H256v32zM448 0V16 32H608h32V64 192v32H608 448V496v16H416V496 224 192 64 32 16 0h32zm0 192H608V64H448V192z"/></svg>
